X: 36818
T: Shetland, The
R: jig
M: 6/8
K: Dmajor
A|:D3 FED|FGA d2e|fdB AGF|GEE E2A|
D3 FED|FGA d2e|fdB AGE|FDD D2A:|
d3 fdd|G3 d2B|AGF dcd|eEE E2A|
[1 d3 fdd|G3 d2B|AGF EAG|FDD D2A:|
[2 DFA dAF|GBd gdB|Add cde|fdd d3||

